X:1
T:I Am Redeemed
T:I Am Redeemed
T:Melvin Joyner Hill
T:Melvin Joyner Hill, 1911
T:Public Domain Courtesy of the Cyber Hymnal™
T:Public Domain Courtesy of the Cyber Hymnal™
C:Melvin Joyner Hill
Z:Public Domain
Z:Courtesy of the Cyber Hymnal™
%%score ( 1 2 ) ( 3 4 )
L:1/8
Q:1/4=160
M:3/2
K:Ab
V:1 treble 
V:2 treble 
V:3 bass 
V:4 bass 
V:1
 [CA]2 [CB]2 | [CA]6 [CF]2 [CG]2 [CA]2 | [DG]4 [DG]4- [DG]4 | [DF]6 [DF]2 [DG]2 [DF]2 | %4
w: 1.~What a|change has now come|o’er me *|Since I’ve been re-|
w: 2.~Sin has|told a dread- ful|sto- ry, *|But I’ve been re-|
w: 3.~Now I|love the Lord’s ap-|pear- ing, *|For I’ve been re-|
w: 4.~When the|voice of God shall|sum- mon *|All~na- tions in a|
 [CE]8 [CA]2 [CB]2 | [CA]6 [CF]2 [CG]2 [CA]2 | [EB]4 [EB]8 | [EB]6 [EG]2 [EG]2 [=DF]2 | E8 z4 || %9
w: deemed; Bright- er|grows the way be-|fore me|Since I’ve been re-|deemed.|
w: deemed; Now my|soul is filled with|glo- ry,|For I’ve been re-|deemed.|
w: deemed; And this|hope my heart is|cheer- ing,|Since I’ve been re-|deemed.|
w: day, May we|be a- mong the|num- ber|That to Him will|say:|
[M:6/4]"^Refrain" [CE]6 [CF]4 [CA]2 | G6- [DG]6 | F6 [EG]4 [DF]2 | E6- [CE]6 | %13
w: ||||
w: I am re-|deemed, I|* am re-|deemed, For|
w: ||||
w: ||||
 [Ec]4 [Ec]2 [Fd]4 [Ec]2 | [EB]4 [Ec]2 [EB]4 [=DA]2 | [=DA]4 [DF]2 [D=E]4 [DF]2 | [DG]6- [DG]6 | %17
w: ||||
w: * the blood of|Christ my Sav- ior|Hath re- deem- èd|me; *|
w: ||||
w: ||||
 [CE]6 [CF]4 [CA]2 | G6- [DG]6 | F6 [EG]4 [DF]2 | E6- [CE]6 | [Ec]4 [Ec]2 [Ec]4 [Ec]2 | %22
w: |||||
w: I am re-|deemed, I|* am re-|deemed, For|* the blood of|
w: |||||
w: |||||
 [DB]4 [DA]2 [=B,G]4 [B,F]2 | [CE]4 [CA]2 [CA]2 [DB]4 | [CA]6- [CA]4 |] %25
w: |||
w: Christ my Sav- ior|Hath re- deem- èd|me! *|
w: |||
w: |||
V:2
 x4 | x12 | x12 | x12 | x12 | x12 | x12 | x12 | E8 x4 ||[M:6/4] x12 | D4 D2 x6 | F6 x6 | C4 C2 x6 | %13
 x12 | x12 | x12 | x12 | x12 | D4 D2 x6 | F6 x6 | C4 C2 x6 | x12 | x12 | x12 | x10 |] %25
V:3
 [A,,E,]2 [A,,E,]2 | [A,,E,]6 [A,,A,]2 [A,,A,]2 [A,,A,]2 | [B,,B,]4 [E,B,]4- [E,B,]4 | %3
w: ~ ~|~ ~ ~ ~|~ ~ *|
 E,6 E,2 E,2 E,2 | [A,,A,]8 [A,,E,]2 [A,,E,]2 | [A,,E,]6 [A,,A,]2 [A,,A,]2 [A,,A,]2 | %6
w: ~ ~ ~ ~|~ ~ ~|~ ~ ~ ~|
 [G,,G,]4 [G,,G,]8 | [B,,G,]6 [B,,B,]2 [B,,B,]2 [B,,B,]2 | [E,G,]8 z4 || %9
w: ~ ~|~ ~ ~ ~|~|
[M:6/4] [A,,A,]6 [A,,A,]4 [A,,A,]2 | [B,,B,]4 [E,D]2 [E,D]6 | [E,D]6 [E,B,]4 [E,G,]2 | %12
w: ~ ~ ~|~ re- deemed,|~ ~ ~|
 [A,,A,]4 [A,C]2 [A,C]6 | [A,,A,]4 [A,,A,]2 [A,,A,]4 [A,,A,]2 | [E,G,]4 [E,A,]2 [E,G,]4 [F,B,]2 | %15
w: ~ re- deemed.|~ ~ ~ ~|~ ~ ~ ~|
 [B,,B,]4 [B,,B,]2 [B,,B,]4 [B,,B,]2 | [E,B,]6- [E,B,]6 | [A,,A,]6 [A,,A,]4 [A,,A,]2 | %18
w: ~ ~ ~ ~|~ *|~ ~ ~|
 [B,,B,]4 [E,D]2 [E,D]6 | [E,D]6 [E,B,]4 [E,G,]2 | [A,,A,]4 [A,C]2 [A,C]6 | %21
w: ~ re- deemed,|~ ~ ~|~ re- deemed.|
 [A,,A,]4 [A,,A,]2 [B,,G,]4 [C,A,]2 | [D,F,]4 [D,F,]2 [=D,A,]4 [D,A,]2 | %23
w: ||
 [E,A,]4 [E,A,]2 [E,A,]2 [E,G,]4 | [A,,E,A,]6- [A,,E,A,]4 |] %25
w: ||
V:4
 x4 | x12 | x12 | E,6 E,2 E,2 E,2 | x12 | x12 | x12 | x12 | x12 ||[M:6/4] x12 | x12 | x12 | x12 | %13
 x12 | x12 | x12 | x12 | x12 | x12 | x12 | x12 | x12 | x12 | x12 | x10 |] %25

